src/images/gamePlatforms/mobile_icon.svg

<svg width="36" height="53" viewBox="0 0 36 53" fill="none" xmlns="http://www.w3.org/2000/svg">
<path fill-rule="evenodd" clip-rule="evenodd" d="M0.5 7.52647C0.5 3.36985 3.95415 0.000244141 8.21505 0.000244141H27.7849C32.0459 0.000244141 35.5 3.36985 35.5 7.52647V44.974C35.5 49.1306 32.0459 52.5002 27.7849 52.5002H8.21505C3.95415 52.5002 0.5 49.1306 0.5 44.974V7.52647ZM8.21505 4.77297C6.65619 4.77297 5.39247 6.00575 5.39247 7.52647V44.974C5.39247 46.4947 6.65619 47.7275 8.21505 47.7275H27.7849C29.3438 47.7275 30.6075 46.4947 30.6075 44.974V7.52647C30.6075 6.00575 29.3438 4.77297 27.7849 4.77297H8.21505Z" fill="#EBEBF5"/>
<path d="M11 2.22075C11 0.994398 12.0426 0.000244141 13.3286 0.000244141H22.6713C23.9574 0.000244141 25 0.994399 25 2.22075V4.77974C25 6.00609 23.9574 7.00024 22.6713 7.00024H13.3287C12.0426 7.00024 11 6.00609 11 4.77974V2.22075Z" fill="#EBEBF5"/>
</svg>

<svg width="36" height="53" fill="none" xmlns="http://www.w3.org/2000/svg"><path fill-rule="evenodd" clip-rule="evenodd" d="M.5 7.526C.5 3.37 3.954 0 8.215 0h19.57c4.26 0 7.715 3.37 7.715 7.526v37.448c0 4.157-3.454 7.526-7.715 7.526H8.215C3.955 52.5.5 49.13.5 44.974V7.526zm7.715-2.753c-1.559 0-2.823 1.233-2.823 2.753v37.448c0 1.52 1.264 2.754 2.823 2.754h19.57c1.559 0 2.823-1.233 2.823-2.754V7.526c0-1.52-1.264-2.753-2.823-2.753H8.215z" fill="#EBEBF5"/><path d="M11 2.22C11 .995 12.043 0 13.329 0h9.342C23.957 0 25 .994 25 2.22v2.56C25 6.006 23.957 7 22.671 7H13.33C12.043 7 11 6.006 11 4.78V2.22z" fill="#EBEBF5"/></svg>
